X:1
T:Title
%%score 1 ( 2 3 )
L:1/8
Q:1/4=90
M:4/4
K:F
V:1 treble nm="Strings 1, Soprano"
V:2 bass nm="Strings 1, Bass"
V:3 bass 
V:1
 z4 z2 FA | [Fc]3 [Fd] [Fc]2 F2 | [FA]3 [EG] [CF]2 z2 | C[CF] [CF]2 [CF]4 | %4
 [CE][EG] [EG]2 [EG]2 FA | [Fc]3 [Fd] [Fc]2 F2 | [FA]3 [EG] [DF]2 D2 | C [CF]2 [GB] [FA]2 [EG]2 | %8
 F6 [CA][CB] | [Fc] [Fc]3- [Fc]2 [CF][CG] | [FA] [FA]3- [FA]2 CC | [B,D]2 [DB]2 [CG]2 [Ec]2 | %12
 [FA]6 [CA][CB] | [Fc] [Fc]3- [Fc]2 [FA]F | [FB] [FB]3- [FB]2 [DB][DG] | [CF]3 [FA] [FA]2 [CG]2 | %16
 [CF]6 z2 |] %17
V:2
 z4 z2 A,C | [F,A,]3 [F,B,] [F,A,]2 [F,A,]2 | [C,C]3 [C,B,] [F,A,]2 z2 | %3
w: 1.~Sweet~ *|love~ that~ moved~ the~|heart~ of~ God,~|
 [F,A,][F,A,] [F,A,]2 [F,A,]4 | [C,G,][C,G,] [C,B,]2 [C,B,]2 A,C | [F,A,]3 [F,B,] [F,A,]2 [F,A,]2 | %6
w: Wait ing~ for~ me,~|wait ing~ for~ me;~ If~ *|I~ shall~ walk~ the~|
 [C,C]3 [C,B,] [D,A,]2 [=B,,_A,]2 | [C,A,] [C,A,]2 [C,D] [C,C]2 [C,B,]2 | [F,,F,A,]6 F,[F,G,] | %9
w: path~ He~ trod,~ 'Tis~|wait ing~ for~ e ven~|me.~ * *|
 [F,A,][F,A,][F,A,][F,A,] [F,A,][F,A,][F,A,][F,B,] | [F,C][F,C][F,C][F,C] [F,C]2 [A,,F,][A,,F,] | %11
w: ||
 [B,,F,]2 [B,,F,]2 [C,E,]2 [C,G,]2 | F,G,A,B, C2 F,[F,G,] | %13
w: ||
 [F,A,][F,A,][F,A,][F,A,] [F,A,][F,A,][F,C][A,,C] | %14
w: |
 [B,,D][B,,D][B,,D][B,,D] [B,,D]2 [B,,F,][B,,F,] | [C,A,]3 [C,C] [C,C]2 [C,B,]2 | [F,,F,A,]6 z2 |] %17
w: |||
V:3
 z4 z2 F,2 | x8 | x8 | x8 | z4 z2 F,2 | x8 | x8 | x8 | x8 | x8 | x8 | x8 | x8 | x8 | x8 | x8 | %16
 x8 |] %17

